X:1
T:Title
%%score { ( 1 4 5 ) | ( 2 3 ) }
L:1/8
Q:1/4=100
M:4/4
K:D
V:1 treble nm="Grand Piano"
V:4 treble 
V:5 treble 
V:2 bass 
V:3 bass 
V:1
 [A,DFA]2 [DFA]2 [A,DFA]2 [DFB]>[Fc] | [DFd]4 [DFA]4 | [GB]2 [DGB]2 [Bd]2 [DAc]>[GB] | %3
w: Thoro~Harris * * * *|||
 [DFA]4- [A,DFA]2[K:bass] =C,2 | [^DA]2 [B,DB]2 [B,EA]2 [B,EG]2 | [A,EG]2 A>E G2 F2 | %6
w: |||
 E2 c>d [E^Ge]2 [EG]2 | [CEA]6 z2 | z4 [EGc]4 | F2 [DF]2 [FB]4 | z2 z [GB] [A,EGA]2 [CGB]2 | %11
w: |||||
 [FA]2 Bc [GAe][FAd][EGc][GB] | [A,EA]2 [EGA]>[EGB] [EGc]4 | %13
w: ||
[M:9/8] [DFA]2 [A,DFA]- [A,DFA]/[A,DFA]/ [DGd]2- [DGd][D^Gd]>[DGe] | %14
w: |
[M:5/4] [Af]2 [Fd]>[DF] [CB]3 [CA]3 |[M:4/4][K:bass] [F,D]8 |] %16
w: ||
V:2
 D,2 A,,2 D,2 z z/ D/ | [D,A,]2 A,,2 D,2 A,,2 | [D,G,D]2 G,,2 [D,G,D]2 z z/ D/ | D,2 A,,2 D,2 z2 | %4
 [B,,F,]2 z z/ F/ E,2 E,2 | C,2 A,,2 [D,B,D]2 [D,A,=C]2 | %6
 [E,A,C]2[K:treble] E>[FA][K:bass] [E,B,D]2 D2 | A,,2 A,>A, A,2 A,2 | C,2 A,,2 [E,A,]2 A,,2 | %9
 [D,A,D]2 [A,,A,]2 [D,A,D]4 | [E,A,]2 z E C,2 [A,,A,]2 | [D,A,D]2 [A,,A,]2 [D,A,]2 z D | %12
 C,2 A,,>A,, E,2 A,,2 |[M:9/8] D,2 =C,- C,/C,/ [B,,G,]2- [B,,G,][^A,,^G,]>[A,,G,] | %14
[M:5/4] [A,,D]2 [A,,A,]>[A,,A,] [A,,G,]3 [A,,G,]3 |[M:4/4] [D,,D,]8 |] %16
V:3
 z4 z2 A,,2 | x8 | z4 z2 G,,2 | x8 | z2 B,,2 z4 | x8 | x2[K:treble] x2[K:bass] x4 | x8 | x8 | x8 | %10
 z2 A,,2 z4 | z4 z2 [A,,A,]2 | x8 |[M:9/8] x9 |[M:5/4] x10 |[M:4/4] x8 |] %16
V:4
 x8 | z4 A,2 z2 | x8 | A,2 z2 z4[K:bass] | x8 | z2 [A,C]2 z4 | x8 | x8 | [A,EG]2 [A,EG]2 z2 A,2 | %9
 x8 | [CGA]4 z4 | z2 [DF]2 z4 | x8 |[M:9/8] x9 |[M:5/4] x10 |[M:4/4][K:bass] x8 |] %16
V:5
 x8 | x8 | x8 | x6[K:bass] x2 | x8 | x8 | x8 | x8 | x8 | x8 | z2 A,2 z4 | x8 | x8 |[M:9/8] x9 | %14
[M:5/4] x10 |[M:4/4][K:bass] x8 |] %16

